src/svg/app-center2.svg

<svg xmlns="http://www.w3.org/2000/svg" width="1000" height="1000" viewBox="0 0 1000 1000"><path fill-rule="evenodd" clip-rule="evenodd" fill="#060102" d="M861.359 918.246h-282.627c-31.203 0-56.451-25.493-56.451-56.676v-174.56c9.244 6.559 19.836 11.145 31.979 11.145h81.871c31.204 0 56.655-25.218 56.655-56.401v-92.494c0-9.828-3.29-18.66-7.706-26.768h176.279c31.203 0 56.453 25.44 56.453 56.623v282.455c0 31.183-25.25 56.676-56.453 56.676zm0-452.219h-282.627c-31.203 0-56.451-25.217-56.451-56.399v-282.678c0-31.235 25.248-56.452 56.451-56.452h282.627c31.203 0 56.453 25.217 56.453 56.452v282.678c0 31.182-25.25 56.399-56.453 56.399zm-452.165 452.219h-282.625c-31.203 0-56.453-25.493-56.453-56.676v-282.455c0-31.183 25.25-56.623 56.453-56.623h282.625c31.204 0 56.465 25.44 56.465 56.623v282.455c0 31.183-25.261 56.676-56.465 56.676zm0-452.219h-282.625c-31.203 0-56.453-25.217-56.453-56.399v-282.678c0-31.235 25.25-56.452 56.453-56.452h282.625c31.204 0 56.465 25.217 56.465 56.452v282.678c0 31.182-25.261 56.399-56.465 56.399z"/></svg>

<?xml version="1.0" encoding="utf-8"?>
<!-- Generator: Adobe Illustrator 16.0.0, SVG Export Plug-In . SVG Version: 6.00 Build 0)  -->
<!DOCTYPE svg PUBLIC "-//W3C//DTD SVG 1.1//EN" "http://www.w3.org/Graphics/SVG/1.1/DTD/svg11.dtd">
<svg version="1.1" id="Layer_1" xmlns="http://www.w3.org/2000/svg" xmlns:xlink="http://www.w3.org/1999/xlink" x="0px" y="0px"
	 width="1000px" height="1000px" viewBox="0 0 1000 1000" enable-background="new 0 0 1000 1000" xml:space="preserve">
<path fill-rule="evenodd" clip-rule="evenodd" fill="#060102" d="M861.359,918.246H578.732c-31.203,0-56.451-25.493-56.451-56.676
	v-174.56c9.244,6.559,19.836,11.145,31.979,11.145h81.871c31.204,0,56.655-25.218,56.655-56.401V549.26
	c0-9.828-3.29-18.66-7.706-26.768h176.279c31.203,0,56.453,25.44,56.453,56.623V861.57
	C917.812,892.753,892.562,918.246,861.359,918.246L861.359,918.246z M861.359,466.027H578.732
	c-31.203,0-56.451-25.217-56.451-56.399V126.95c0-31.235,25.248-56.452,56.451-56.452h282.627c31.203,0,56.453,25.217,56.453,56.452
	v282.678C917.812,440.81,892.562,466.027,861.359,466.027L861.359,466.027z M409.194,918.246H126.569
	c-31.203,0-56.453-25.493-56.453-56.676V579.115c0-31.183,25.25-56.623,56.453-56.623h282.625c31.204,0,56.465,25.44,56.465,56.623
	V861.57C465.659,892.753,440.398,918.246,409.194,918.246L409.194,918.246z M409.194,466.027H126.569
	c-31.203,0-56.453-25.217-56.453-56.399V126.95c0-31.235,25.25-56.452,56.453-56.452h282.625c31.204,0,56.465,25.217,56.465,56.452
	v282.678C465.659,440.81,440.398,466.027,409.194,466.027L409.194,466.027z"/>
</svg>
